X:181
T: KOMMT LASST UNS SPAZIEREN
N: F0317
O: Europa, Mitteleuropa, Deutschland
R: Jugend - Lied, Natur
M: 6/8
L: 1/8
K: A
E | A2Ac2c | e3c2
e | d2dcBc | B3z2
B | d2dc2c | f3e2
c | BdcBAG | A3z2

